X:44
T:naid drosd y llanerch bach
O:traditional welsh
Z:crm
M:C
L:1/4
Q:1/2=170
K:Bm
BFBc|deff|B2Bc|BFGA|BcdB|gfed|cdcB|AGAF|
BFBc|d2f2|BFBc|BFGA|BcdB|cdec|dBBA|B4||
BFBf|gfeg|fgfe|d2dc|Bcdf|gfed|cdcB|AGAF|
b2bf|gfeg|fgfe|d2dc|BcdB|cdec|dBBA|B4||
FDFG|ABcd|ecdB|ABcA|Bcdf|gfed|cdcB|AGAF|
F2FG|ABcd|ecdB|ABcA|BcdB|cdec|dBBA|B4||
